optimized/24/outline/pagination.svg

<svg viewBox="0 0 24 24" xmlns="http://www.w3.org/2000/svg" fill="currentColor" data-slot="icon">
  <g clip-path="url(#clip0_2117_12158)">
    <path d="M2.75 3C3.16421 3 3.5 3.33579 3.5 3.75V6C3.5 6.69036 4.05964 7.25 4.75 7.25H19.25C19.9404 7.25 20.5 6.69036 20.5 6V3.75C20.5 3.33579 20.8358 3 21.25 3C21.6642 3 22 3.33579 22 3.75V6C22 7.51878 20.7688 8.75 19.25 8.75H4.75C3.23122 8.75 2 7.51878 2 6V3.75C2 3.33579 2.33579 3 2.75 3Z"/>
    <path d="M21.25 21C20.8358 21 20.5 20.6642 20.5 20.25V18C20.5 17.3096 19.9404 16.75 19.25 16.75L4.75 16.75C4.05964 16.75 3.5 17.3096 3.5 18L3.5 20.25C3.5 20.6642 3.16421 21 2.75 21C2.33579 21 2 20.6642 2 20.25V18C2 16.4812 3.23122 15.25 4.75 15.25L19.25 15.25C20.7688 15.25 22 16.4812 22 18V20.25C22 20.6642 21.6642 21 21.25 21Z"/>
    <path d="M3 11.25C2.58579 11.25 2.25 11.5858 2.25 12C2.25 12.4142 2.58579 12.75 3 12.75H7C7.41421 12.75 7.75 12.4142 7.75 12C7.75 11.5858 7.41421 11.25 7 11.25H3Z"/>
    <path d="M9.25 12C9.25 11.5858 9.58579 11.25 10 11.25H14C14.4142 11.25 14.75 11.5858 14.75 12C14.75 12.4142 14.4142 12.75 14 12.75H10C9.58579 12.75 9.25 12.4142 9.25 12Z"/>
    <path d="M17 11.25C16.5858 11.25 16.25 11.5858 16.25 12C16.25 12.4142 16.5858 12.75 17 12.75H21C21.4142 12.75 21.75 12.4142 21.75 12C21.75 11.5858 21.4142 11.25 21 11.25H17Z"/>
  </g>
  <defs>
    <clipPath id="clip0_2117_12158">
      <rect width="24" height="24"/>
    </clipPath>
  </defs>
</svg>

<svg xmlns="http://www.w3.org/2000/svg" viewBox="0 0 24 24" fill="currentColor" data-slot="icon">
  <g clip-path="url(#a)">
    <path d="M2.75 3a.75.75 0 0 1 .75.75V6c0 .69.56 1.25 1.25 1.25h14.5c.69 0 1.25-.56 1.25-1.25V3.75a.75.75 0 0 1 1.5 0V6a2.75 2.75 0 0 1-2.75 2.75H4.75A2.75 2.75 0 0 1 2 6V3.75A.75.75 0 0 1 2.75 3Z"/>
    <path d="M21.25 21a.75.75 0 0 1-.75-.75V18c0-.69-.56-1.25-1.25-1.25H4.75c-.69 0-1.25.56-1.25 1.25v2.25a.75.75 0 0 1-1.5 0V18a2.75 2.75 0 0 1 2.75-2.75h14.5A2.75 2.75 0 0 1 22 18v2.25a.75.75 0 0 1-.75.75Z"/>
    <path d="M3 11.25a.75.75 0 0 0 0 1.5h4a.75.75 0 0 0 0-1.5H3Z"/>
    <path d="M9.25 12a.75.75 0 0 1 .75-.75h4a.75.75 0 0 1 0 1.5h-4a.75.75 0 0 1-.75-.75Z"/>
    <path d="M17 11.25a.75.75 0 0 0 0 1.5h4a.75.75 0 0 0 0-1.5h-4Z"/>
  </g>
  <defs>
    <clipPath id="a">
      <rect width="24" height="24"/>
    </clipPath>
  </defs>
</svg>
